X:270
T:Vals efter Karl Stenström (SvL Halland 270)
R:Vals
O:Eftra, Halland
B:Svenska Låtar Halland
S:Karls Stenström
N:SvL: Stenström hörde valsen när han var barn.
Z:Till abc Jonas Brunskog
M:3/4
L:1/8
K:D
Ad fA df|Ad (fa) g2|(Ac) (eA) (ce)|(Ad) eg f2|
(Ad) (fA) (df)|Ad fa g2|Ac eA ce|d4 z2:|
|:d2 [db]2 [db]2|b2 a>(g a2)|a2 ef ef|g2 (fe) f2|
(Ad) (fA) df|(Ad) fa g2|(Ac) eA ce|d4 z2:|

